X:65
T: Ritter und Maid
N: A0069A
O: Europa, Mitteleuropa, Deutschland
N: Melodie bei Fr. Nicolai, Almanach I, 1771 No. 2.
R: Romanze, Ballade, Lied
M: 4/2
L: 1/4
K: G
d2 | d2c2d2_e2 | =f3gd3
f | _e2d2c2_B2 | c4d2z
c | c2ccd2c2 | _B3AG3
A | _B2c2d2B2 | A4G2

@@@ Tune index: 65
